icon-themes/sifr_svg/cmd/lc_mailmergesavedocuments.svg

<svg viewBox="0 0 24 24" xmlns="http://www.w3.org/2000/svg"><path d="m3 2v17h3v3h4v-2h-2v-13h11v3h2v-5h-3v-3zm2 2h11v1h-10v12h-1zm7 7c-.554 0-1 .446-1 1v10c0 .554.446 1 1 1h1v-5h8v5h1c.554 0 1-.446 1-1v-10c0-.554-.446-1-1-1zm1 2h8v3h-8zm1 6v4h1v-3h2v3h3v-4z" fill="#555753"/></svg>

<svg xmlns="http://www.w3.org/2000/svg" viewBox="0 0 24 24">
  <path
     style="fill:#555753"
     d="M 3 2 L 3 19 L 6 19 L 6 22 L 10 22 L 10 20 L 8 20 L 8 7 L 19 7 L 19 10 L 21 10 L 21 5 L 18 5 L 18 2 L 3 2 z M 5 4 L 16 4 L 16 5 L 6 5 L 6 17 L 5 17 L 5 4 z M 12 11 C 11.446 11 11 11.446 11 12 L 11 22 C 11 22.554 11.446 23 12 23 L 13 23 L 13 18 L 21 18 L 21 23 L 22 23 C 22.554 23 23 22.554 23 22 L 23 12 C 23 11.446 22.554 11 22 11 L 12 11 z M 13 13 L 21 13 L 21 16 L 13 16 L 13 13 z M 14 19 L 14 23 L 15 23 L 15 20 L 17 20 L 17 23 L 20 23 L 20 19 L 14 19 z "
     />
</svg>
